lib/functional/brands/instagram-logo.svg

<svg xmlns="http://www.w3.org/2000/svg" fill="none" stroke="currentColor" aria-hidden="true" viewBox="0 0 32 32"><g id="Icon-InstagramLogo"><g clip-path="url(#clip0_11_3889)"><g id="size=md (32px)"><path id="Vector" stroke-miterlimit="10" stroke-width="2" d="M16 21C18.7614 21 21 18.7614 21 16C21 13.2386 18.7614 11 16 11C13.2386 11 11 13.2386 11 16C11 18.7614 13.2386 21 16 21Z"/><path id="Vector_2" stroke-linecap="round" stroke-linejoin="round" stroke-width="2" d="M21.5 4.5H10.5C7.18629 4.5 4.5 7.18629 4.5 10.5V21.5C4.5 24.8137 7.18629 27.5 10.5 27.5H21.5C24.8137 27.5 27.5 24.8137 27.5 21.5V10.5C27.5 7.18629 24.8137 4.5 21.5 4.5Z"/><path id="Vector_3" fill="#101828" d="M22.5 11C23.3284 11 24 10.3284 24 9.5C24 8.67157 23.3284 8 22.5 8C21.6716 8 21 8.67157 21 9.5C21 10.3284 21.6716 11 22.5 11Z"/></g></g></g><defs><clipPath id="clip0_11_3889"><rect width="32" height="32" fill="white" rx="5"/></clipPath></defs></svg>

<svg xmlns="http://www.w3.org/2000/svg" fill="none" stroke="currentColor" aria-hidden="true" viewBox="0 0 32 32"><g clip-path="url(#a)"><path stroke-miterlimit="10" stroke-width="2" d="M16 21a5 5 0 1 0 0-10 5 5 0 0 0 0 10Z"/><path stroke-linecap="round" stroke-linejoin="round" stroke-width="2" d="M21.5 4.5h-11a6 6 0 0 0-6 6v11a6 6 0 0 0 6 6h11a6 6 0 0 0 6-6v-11a6 6 0 0 0-6-6Z"/><path fill="#101828" d="M22.5 11a1.5 1.5 0 1 0 0-3 1.5 1.5 0 0 0 0 3Z"/></g><defs><clipPath id="a"><rect width="32" height="32" fill="#fff" rx="5"/></clipPath></defs></svg>
